icons/svg/video-clip.svg

<svg width="24" height="24" viewBox="0 0 24 24" fill="none" xmlns="http://www.w3.org/2000/svg">
<rect x="2.75" y="4.25" width="18.5" height="15.5" rx="3.5" stroke="currentColor" stroke-width="1.5" stroke-linecap="round" stroke-linejoin="round"/>
<path d="M8.83002 13.2905C8.83002 14.3877 8.83002 14.9364 9.06048 15.2539C9.2615 15.5309 9.57053 15.7097 9.91086 15.7459C10.301 15.7874 10.7766 15.5139 11.7279 14.967L13.9722 13.6765C14.9284 13.1266 15.4066 12.8517 15.5669 12.4924C15.7066 12.179 15.7066 11.821 15.5669 11.5076C15.4066 11.1483 14.9284 10.8734 13.9722 10.3235L11.7279 9.03305C10.7766 8.48609 10.301 8.21262 9.91086 8.25411C9.57053 8.29031 9.2615 8.46909 9.06048 8.74608C8.83002 9.06363 8.83002 9.61226 8.83002 10.7095V13.2905Z" stroke="currentColor" stroke-width="1.5"/>
</svg>

<svg xmlns="http://www.w3.org/2000/svg" width="24" height="24" fill="none" viewBox="0 0 24 24"><rect width="18.5" height="15.5" x="2.75" y="4.25" stroke="currentColor" stroke-linecap="round" stroke-linejoin="round" stroke-width="1.5" rx="3.5"/><path stroke="currentColor" stroke-width="1.5" d="M8.83 13.29c0 1.098 0 1.646.23 1.964.201.277.51.456.85.492.391.041.867-.232 1.818-.779l2.244-1.29c.956-.55 1.435-.825 1.595-1.185a1.2 1.2 0 0 0 0-.984c-.16-.36-.639-.635-1.595-1.184l-2.244-1.291c-.951-.547-1.427-.82-1.817-.779-.34.036-.65.215-.85.492-.231.318-.231.866-.231 1.963z"/></svg>
